public/topics/42.svg

<svg width="250" height="250" viewBox="0 0 250 250" fill="none" xmlns="http://www.w3.org/2000/svg">
<rect width="250" height="250" rx="30" fill="#F3DA0B"/>
<path d="M59.2 75C59.2 81.5333 58 89.1333 55.6 97.8C53.3333 106.333 50 116.867 45.6 129.4L41 143.2C43.2667 143.6 45.6 143.8 48 143.8C52.1333 143.8 58.3333 143.4 66.6 142.6C74.8667 141.8 80.8 141.4 84.4 141.4L84.2 119.4C83.9333 104.2 83.8 93 83.8 85.8C83.8 76.3333 86.9333 71.6 93.2 71.6C98.1333 71.6 101.267 72.8667 102.6 75.4C104.067 77.9333 104.8 81.7333 104.8 86.8C104.8 92 104.4 100.067 103.6 111C103.467 113.133 103.267 116.667 103 121.6C102.733 126.533 102.6 130.8 102.6 134.4L102.8 140.8L106.8 140.6C110 140.333 112.467 140.2 114.2 140.2C117.4 140.2 120.467 141.267 123.4 143.4C126.333 145.4 127.8 147.8 127.8 150.6C127.8 153.933 127.267 156.533 126.2 158.4C125.267 160.267 124.133 161.2 122.8 161.2C120.533 161.2 117.667 160.933 114.2 160.4C113.4 160.4 112.2 160.333 110.6 160.2C109 159.933 107.467 159.8 106 159.8L102.6 160L102.8 187C102.8 189.8 101.867 191.933 100 193.4C98.1333 194.867 96 195.6 93.6 195.6C90.6667 195.6 88.0667 194.667 85.8 192.8C83.5333 190.933 82.4 188.6 82.4 185.8C82.4 176.867 82.5333 169.867 82.8 164.8C82.9333 163.6 83 162.133 83 160.4C79 160.267 72.0667 160.733 62.2 161.8C52.8667 162.867 45.8 163.4 41 163.4C34.8667 163.4 29.6667 162.533 25.4 160.8C21.2667 159.067 19.2 156.333 19.2 152.6C19.2 149 19.9333 144.6 21.4 139.4C22.8667 134.2 25.0667 127.2 28 118.4C29.3333 114.933 30.3333 112.067 31 109.8C33.4 103 35.2 97.2667 36.4 92.6C37.6 87.8 38.9333 82 40.4 75.2C40.9333 73.0667 42.0667 71.4667 43.8 70.4C45.5333 69.3333 47.5333 68.8 49.8 68.8C52.2 68.8 54.3333 69.4 56.2 70.6C58.2 71.6667 59.2 73.1333 59.2 75ZM170.317 174.2C174.851 174.467 177.851 174.6 179.317 174.6C183.851 174.6 187.851 174.533 191.317 174.4C194.917 174.267 197.984 174.133 200.517 174C207.051 173.6 212.917 173.4 218.117 173.4C223.184 173.4 226.917 174.733 229.317 177.4C231.717 180.067 232.917 183.6 232.917 188C232.917 190.133 231.517 191.867 228.717 193.2C225.917 194.4 223.051 195 220.117 195C217.584 195 212.317 194.733 204.317 194.2C194.717 193.4 187.184 193 181.717 193C178.784 193 175.317 193.2 171.317 193.6C169.717 193.733 167.784 193.867 165.517 194C163.251 194.133 160.717 194.2 157.917 194.2C152.584 194.2 148.517 193.467 145.717 192C142.917 190.533 141.517 187.867 141.517 184C141.517 180.667 142.851 177.267 145.517 173.8C148.184 170.333 151.917 166.2 156.717 161.4L161.517 156.6C163.651 154.333 167.584 150.467 173.317 145C182.784 136.467 190.117 128.933 195.317 122.4C200.651 115.867 203.317 109.4 203.317 103C203.317 98.8667 201.317 95.5333 197.317 93C193.451 90.3333 188.984 89 183.917 89C176.184 89 170.584 90.7333 167.117 94.2C163.784 97.5333 162.117 102.4 162.117 108.8C162.117 110.4 161.184 111.867 159.317 113.2C157.584 114.4 155.384 115 152.717 115C148.984 115 146.384 113.667 144.917 111C143.451 108.333 142.717 105.067 142.717 101.2C142.717 95.0667 144.584 89.6667 148.317 85C152.051 80.2 157.117 76.4667 163.517 73.8C170.051 71.1333 177.251 69.8 185.117 69.8C190.717 69.8 196.517 71.2 202.517 74C208.651 76.6667 213.717 80.3333 217.717 85C221.851 89.5333 223.917 94.5333 223.917 100C223.917 108.267 221.851 116.133 217.717 123.6C213.584 131.067 208.717 137.733 203.117 143.6C197.651 149.333 190.517 156.133 181.717 164C177.451 167.6 173.651 171 170.317 174.2Z" fill="white"/>
</svg>

<svg xmlns="http://www.w3.org/2000/svg" width="250" height="250" fill="none" viewBox="0 0 250 250"><rect width="250" height="250" fill="#f3da0b" rx="30"/><path fill="#fff" d="M59.2 75q0 9.8-3.6 22.8-3.4 12.8-10 31.6L41 143.2q3.4.6 7 .6 6.2 0 18.6-1.2t17.8-1.2l-.2-22q-.4-22.8-.4-33.6 0-14.2 9.4-14.2 7.4 0 9.4 3.8 2.2 3.8 2.2 11.4 0 7.8-1.2 24.2-.2 3.2-.6 10.6t-.4 12.8l.2 6.4 4-.2q4.8-.4 7.4-.4 4.8 0 9.2 3.2 4.4 3 4.4 7.2 0 5-1.6 7.8-1.4 2.8-3.4 2.8-3.4 0-8.6-.8-1.2 0-3.6-.2-2.4-.4-4.6-.4l-3.4.2.2 27q0 4.2-2.8 6.4t-6.4 2.2q-4.4 0-7.8-2.8t-3.4-7q0-13.4.4-21 .2-1.8.2-4.4-6-.2-20.8 1.4-14 1.6-21.2 1.6-9.2 0-15.6-2.6-6.2-2.6-6.2-8.2 0-5.4 2.2-13.2t6.6-21q2-5.2 3-8.6 3.6-10.2 5.4-17.2 1.8-7.2 4-17.4.8-3.2 3.4-4.8t6-1.6q3.6 0 6.4 1.8 3 1.6 3 4.4m111.117 99.2q6.801.4 9 .4 6.801 0 12-.2 5.4-.2 9.2-.4 9.8-.6 17.6-.6 7.6 0 11.2 4t3.6 10.6q0 3.2-4.2 5.2-4.2 1.8-8.6 1.8-3.8 0-15.8-.8-14.4-1.2-22.6-1.2-4.4 0-10.4.6-2.4.2-5.8.4t-7.6.2q-8 0-12.2-2.2t-4.2-8q0-5 4-10.2t11.2-12.4l4.8-4.8q3.2-3.4 11.8-11.6 14.2-12.8 22-22.6 8-9.8 8-19.4 0-6.2-6-10-5.8-4-13.4-4-11.6 0-16.8 5.2-5 5-5 14.6 0 2.4-2.8 4.4-2.6 1.8-6.6 1.8-5.6 0-7.8-4t-2.2-9.8q0-9.2 5.6-16.2 5.6-7.2 15.2-11.2 9.801-4 21.6-4 8.4 0 17.4 4.2 9.2 4 15.2 11 6.2 6.8 6.2 15 0 12.4-6.2 23.6t-14.6 20q-8.2 8.6-21.4 20.4-6.399 5.4-11.4 10.2"/></svg>
